assets/sonr-icons/file-archive.svg

<svg xmlns="http://www.w3.org/2000/svg" width="24" height="24" fill="none" viewBox="0 0 24 24"><path fill="#000" d="M8.5 2C8.224 2 8 2.224 8 2.5V6.5C8 6.776 8.224 7 8.5 7H9.5C9.776 7 10 6.776 10 6.5V2.5C10 2.224 9.777 2 9.5 2H8.5ZM10 7.5C10 7.224 10.224 7 10.5 7H11.5C11.776 7 12 7.223 12 7.5V8.5C12 8.776 11.776 9 11.5 9H10.5C10.224 9 10 8.777 10 8.5V7.5ZM8 9.5C8 9.224 8.223 9 8.5 9H9.5C9.776 9 10 9.223 10 9.5V10.5C10 10.776 9.777 11 9.5 11H8.5C8.224 11 8 10.776 8 10.5V9.5ZM10.5 11C10.224 11 10 11.224 10 11.5V12.5C10 12.776 10.224 13 10.5 13H11.5C11.776 13 12 12.776 12 12.5V11.5C12 11.224 11.776 11 11.5 11H10.5ZM8 13.5C8 13.224 8.223 13 8.5 13H9.5C9.776 13 10 13.224 10 13.5V14.5C10 14.776 9.777 15 9.5 15H8.5C8.224 15 8 14.776 8 14.5V13.5ZM10.5 15C10.224 15 10 15.224 10 15.5V16.5C10 16.776 10.224 17 10.5 17H11.5C11.776 17 12 16.776 12 16.5V15.5C12 15.224 11.776 15 11.5 15H10.5ZM8 17.5C8 17.224 8.223 17 8.5 17H9.5C9.776 17 10 17.224 10 17.5V21.5C10 21.776 9.777 22 9.5 22H8.5C8.224 22 8 21.776 8 21.5V17.5Z"/><path fill="#000" d="M14.691 2.111C15.099 2.209 15.49 2.371 15.848 2.59C16.254 2.839 16.593 3.178 17.041 3.627L18.373 4.959C18.822 5.408 19.161 5.747 19.41 6.152C19.629 6.51 19.791 6.9 19.889 7.309C20 7.772 20 8.252 19.999 8.886V16.241C19.999 17.046 19.999 17.71 19.955 18.252C19.909 18.814 19.81 19.33 19.563 19.816C19.18 20.569 18.568 21.18 17.815 21.564C17.33 21.812 16.813 21.91 16.251 21.956C15.709 22 15.046 22 14.24 22H9.75699C8.95199 22 8.28799 22 7.74599 21.956C7.18399 21.91 6.66699 21.811 6.18099 21.564C5.42799 21.181 4.81699 20.569 4.43299 19.816C4.18499 19.331 4.08699 18.814 4.04099 18.252C3.99699 17.71 3.99699 17.047 3.99699 16.241V7.759C3.99699 6.954 3.99699 6.29 4.04099 5.748C4.08699 5.186 4.18599 4.669 4.43299 4.183C4.81599 3.43 5.42799 2.819 6.18099 2.435C6.66599 2.187 7.18299 2.089 7.74599 2.044C8.28699 2 8.95099 2 9.75699 2H13.112C13.747 2 14.226 1.999 14.689 2.11L14.691 2.111ZM13 4H9.79999C8.94399 4 8.36199 4.001 7.91099 4.037C7.47199 4.073 7.24899 4.138 7.09199 4.218C6.71499 4.41 6.40899 4.716 6.21799 5.092C6.13799 5.249 6.07299 5.472 6.03699 5.911C5.99999 6.361 5.99999 6.943 5.99999 7.8V16.2C5.99999 17.057 6.00099 17.638 6.03699 18.089C6.07299 18.528 6.13799 18.751 6.21799 18.908C6.40999 19.285 6.71599 19.591 7.09199 19.782C7.24899 19.862 7.47199 19.927 7.91099 19.963C8.36099 20 8.94399 20 9.79999 20H14.2C15.056 20 15.639 19.999 16.089 19.963C16.528 19.927 16.751 19.862 16.908 19.782C17.285 19.59 17.591 19.284 17.782 18.908C17.861 18.751 17.927 18.528 17.963 18.089C18 17.639 18.001 17.056 18.001 16.2V9H16.001C14.344 9 13.001 7.657 13.001 6V4H13ZM17.56 7C17.44 6.858 17.248 6.662 16.887 6.301L15.699 5.113C15.338 4.752 15.143 4.56 15 4.44V6C15 6.552 15.448 7 16 7H17.56Z"/></svg>

<svg xmlns="http://www.w3.org/2000/svg" width="24" height="24" fill="none"><path fill="currentColor" d="M8.5 2a.5.5 0 0 0-.5.5v4a.5.5 0 0 0 .5.5h1a.5.5 0 0 0 .5-.5v-4a.5.5 0 0 0-.5-.5zM10 7.5a.5.5 0 0 1 .5-.5h1a.5.5 0 0 1 .5.5v1a.5.5 0 0 1-.5.5h-1a.5.5 0 0 1-.5-.5zm-2 2a.5.5 0 0 1 .5-.5h1a.5.5 0 0 1 .5.5v1a.5.5 0 0 1-.5.5h-1a.5.5 0 0 1-.5-.5zm2.5 1.5a.5.5 0 0 0-.5.5v1a.5.5 0 0 0 .5.5h1a.5.5 0 0 0 .5-.5v-1a.5.5 0 0 0-.5-.5zM8 13.5a.5.5 0 0 1 .5-.5h1a.5.5 0 0 1 .5.5v1a.5.5 0 0 1-.5.5h-1a.5.5 0 0 1-.5-.5zm2.5 1.5a.5.5 0 0 0-.5.5v1a.5.5 0 0 0 .5.5h1a.5.5 0 0 0 .5-.5v-1a.5.5 0 0 0-.5-.5zM8 17.5a.5.5 0 0 1 .5-.5h1a.5.5 0 0 1 .5.5v4a.5.5 0 0 1-.5.5h-1a.5.5 0 0 1-.5-.5z"/><path fill="currentColor" d="M14.691 2.111c.408.098.799.26 1.157.479.406.249.745.588 1.193 1.037l1.332 1.332c.449.449.788.788 1.037 1.193.219.358.381.748.479 1.157.111.463.111.943.11 1.577v7.355c0 .805 0 1.469-.044 2.011-.046.562-.145 1.078-.392 1.564a4 4 0 0 1-1.748 1.748c-.485.248-1.002.346-1.564.392-.542.044-1.205.044-2.011.044H9.757c-.805 0-1.469 0-2.011-.044-.562-.046-1.079-.145-1.565-.392a4 4 0 0 1-1.748-1.748c-.248-.485-.346-1.002-.392-1.564-.044-.542-.044-1.205-.044-2.011V7.759c0-.805 0-1.469.044-2.011.046-.562.145-1.079.392-1.565a4 4 0 0 1 1.748-1.748c.485-.248 1.002-.346 1.565-.391C8.287 2 8.951 2 9.757 2h3.355c.635 0 1.114-.001 1.577.11zM13 4H9.8c-.856 0-1.438.001-1.889.037-.439.036-.662.101-.819.181a2 2 0 0 0-.874.874c-.08.157-.145.38-.181.819C6 6.361 6 6.943 6 7.8v8.4c0 .857.001 1.438.037 1.889.036.439.101.662.181.819.192.377.498.683.874.874.157.08.38.145.819.181C8.361 20 8.944 20 9.8 20h4.4c.856 0 1.439-.001 1.889-.037.439-.036.662-.101.819-.181.377-.192.683-.498.874-.874.079-.157.145-.38.181-.819.037-.45.038-1.033.038-1.889V9h-2a3 3 0 0 1-3-3zm4.56 3c-.12-.142-.312-.338-.673-.699l-1.188-1.188A13 13 0 0 0 15 4.44V6a1 1 0 0 0 1 1z"/></svg>
